X: 1
T: The Favourite Dram
R: Slip Jig
M: 9/8
L: 1/8
K: G
c|:B2 c dBG G2 f|g2 e dBG G2 c|B2 c dBG GAB|c2 B AFD D2 c:|
|| BAB BAB G2 c|B2 c dBG G2 c| BAB BAB G2 B|c2 B AFD D2 c|
| BAB BAB G2 c|B2 c dBG G2 c| B2 c dBG gdB|c2 B AFD D2 f ||
||gdB gdB G2 f| g2 e dBG G2 f|gdB gdB GAB|c2 B AFD D2 f|
|gdB gdB G2 f| g2 e dBG G2 c|Bcd def gdB|c2 B AFD D2||
